public/images/icons/x.svg

<svg width="24" height="22" viewBox="0 0 24 22" fill="none" xmlns="http://www.w3.org/2000/svg">
<path d="M18.901 0.153503H22.581L14.541 9.3435L24 21.8465H16.594L10.794 14.2625L4.156 21.8465H0.474L9.074 12.0165L0 0.154503H7.594L12.837 7.0865L18.901 0.153503ZM17.61 19.6445H19.649L6.486 2.2405H4.298L17.61 19.6445Z" fill="white"/>
</svg>

<svg xmlns="http://www.w3.org/2000/svg" width="24" height="22" fill="none"><path fill="#fff" d="M18.901.154h3.68l-8.04 9.19L24 21.846h-7.406l-5.8-7.584-6.638 7.584H.474l8.6-9.83L0 .155h7.594l5.243 6.931L18.901.154Zm-1.291 19.49h2.039L6.486 2.242H4.298L17.61 19.645Z"/></svg>
